symbols/web/1k/materialsymbolsoutlined/1k_wght300gradN25fill1_48px.svg

<svg xmlns="http://www.w3.org/2000/svg" height="48" width="48"><path d="M25.05 29.65H27v-4.6l4.6 4.6h2.75l-5.7-5.7 5.7-5.6H31.6L27 22.9v-4.55h-1.95Zm-7.85 0h2v-11.3h-5.1v2h3.1Zm-7.25 11.2q-1.15 0-1.975-.825-.825-.825-.825-1.975V9.95q0-1.15.825-1.975Q8.8 7.15 9.95 7.15h28.1q1.15 0 1.975.825.825.825.825 1.975v28.1q0 1.15-.825 1.975-.825.825-1.975.825Z"/></svg>

<svg xmlns="http://www.w3.org/2000/svg" height="48" width="48"><path d="M25.05 29.65H27V25.05L31.6 29.65H34.35L28.65 23.95L34.35 18.35H31.6L27 22.9V18.35H25.05ZM17.2 29.65H19.2V18.35H14.1V20.35H17.2ZM9.95 40.85Q8.8 40.85 7.975 40.025Q7.15 39.2 7.15 38.05V9.95Q7.15 8.8 7.975 7.975Q8.8 7.15 9.95 7.15H38.05Q39.2 7.15 40.025 7.975Q40.85 8.8 40.85 9.95V38.05Q40.85 39.2 40.025 40.025Q39.2 40.85 38.05 40.85Z"/></svg>
